images/logo.svg

<svg width="111" height="43" viewBox="0 0 111 43" fill="none" xmlns="http://www.w3.org/2000/svg">
<path d="M41.5078 32.2344C42.9023 32.2344 44.1445 31.7891 45.1523 30.3242L45.3398 32H47.6953V24.8984C47.6953 22.0391 45.8203 20.0469 42.6328 20.0469C40.3242 20.0469 38.8359 21.0781 37.7109 22.6133L39.9023 24.1953C40.4062 23.3398 41.3086 22.543 42.6562 22.543C44.168 22.543 44.9648 23.5273 44.9648 25.0156H41.918C39.293 25.0156 37.2539 25.8594 37.2539 28.4023C37.2539 30.8516 39.1055 32.2344 41.5078 32.2344ZM41.918 29.8203C40.8047 29.8203 40.1836 29.2695 40.1836 28.4961C40.1836 27.7578 40.7812 27.0781 42.082 27.0781H44.9648C44.918 28.543 43.5469 29.8203 41.918 29.8203Z" fill="#335EEA"/>
<path d="M50.7539 32H53.5898V25.5898C53.5898 23.5508 54.6211 22.6836 56.2266 22.6836C57.6914 22.6836 58.4648 23.7969 58.4648 25.332V32H61.2891V24.9688C61.2891 22.5195 60.1172 20.0469 57.0469 20.0469C55.8984 20.0469 54.5273 20.5039 53.5898 21.6523V20.293H50.7539V32Z" fill="#335EEA"/>
<path d="M71.7656 15.4414V21.4648C70.957 20.457 69.6562 20.0469 68.4375 20.0469C65.1914 20.0469 63.4102 22.9062 63.4102 26.1406C63.4102 29.4102 65.1914 32.2344 68.4844 32.2344C69.7852 32.2344 71.0742 31.7891 71.8828 30.6875L72.0117 32H74.6719V15.4414H71.7656ZM69.1758 29.6445C67.207 29.6445 66.3164 28.1094 66.3164 26.1406C66.3164 24.1953 67.207 22.6367 69.1758 22.6367C71.1445 22.6367 72.0117 24.1719 72.0117 26.1406C72.0117 28.1328 71.1445 29.6445 69.1758 29.6445Z" fill="#335EEA"/>
<path d="M78.1289 32H80.9883V28.5664L82.793 26.5742L86.2266 32H89.6016L84.7383 24.8281L89.1211 20.293H85.4062L80.9883 25.1562V15.4414H78.1289V32Z" fill="#335EEA"/>
<path d="M91.1367 18.0781H94.1133V15.4414H91.1367V18.0781ZM91.207 32H94.043V20.293H91.207V32Z" fill="#335EEA"/>
<path d="M101.602 32.2344C102.41 32.2344 103.277 32.0469 103.711 31.8828V29.293C103.324 29.4805 102.68 29.7148 102.082 29.7148C101.332 29.7148 100.758 29.3867 100.758 28.2617V22.6836H103.711V20.293H100.758V15.3477L97.9688 17.3867V20.293H96.0352V22.6836H97.9219V28.7656C97.9219 30.8984 99.293 32.2344 101.602 32.2344Z" fill="#335EEA"/>
<path d="M106.934 32H109.805V28.9062H106.934V32Z" fill="#335EEA"/>
<path fill-rule="evenodd" clip-rule="evenodd" d="M45.3398 32L45.1523 30.3242C45.0665 30.4489 44.979 30.5663 44.8898 30.6765C43.9319 31.8617 42.7836 32.2344 41.5078 32.2344C39.1054 32.2344 37.2539 30.8516 37.2539 28.4024C37.2539 25.8594 39.2929 25.0156 41.9179 25.0156H44.9648C44.9648 24.9132 44.961 24.8131 44.9535 24.7156C44.8517 23.3965 44.0639 22.543 42.6562 22.543C41.4426 22.543 40.5902 23.1892 40.0646 23.9425C40.0065 24.0257 39.9524 24.1102 39.9023 24.1953L37.7109 22.6133C37.7703 22.5322 37.8308 22.4525 37.8923 22.3743C38.9954 20.972 40.4461 20.0469 42.6328 20.0469C45.8203 20.0469 47.6953 22.0391 47.6953 24.8984V32H45.3398ZM44.6526 24.7156H41.9179C40.5827 24.7156 39.3495 24.9285 38.4414 25.5017C37.5106 26.0891 36.9539 27.035 36.9539 28.4024C36.9539 29.7089 37.4509 30.7524 38.2851 31.4649C39.1138 32.1727 40.2514 32.5344 41.5078 32.5344C42.2369 32.5344 42.9434 32.4179 43.6053 32.0989C44.0821 31.869 44.5266 31.5385 44.9355 31.085L45.0715 32.3H47.9953V24.8984C47.9953 23.4021 47.5033 22.1076 46.57 21.1868C45.6366 20.2661 44.29 19.7469 42.6328 19.7469C40.2104 19.7469 38.6388 20.8396 37.4689 22.436L37.2903 22.6797L39.9937 24.6313L40.1608 24.3476C40.6284 23.5538 41.4454 22.843 42.6562 22.843C43.3438 22.843 43.8333 23.0645 44.1542 23.4217C44.4308 23.7296 44.6063 24.1655 44.6526 24.7156ZM40.8201 29.2135C41.0467 29.3939 41.4075 29.5203 41.9179 29.5203C43.2823 29.5203 44.4242 28.5357 44.6322 27.3781H42.082C41.4822 27.3781 41.0824 27.5346 40.838 27.7399C40.5966 27.9428 40.4835 28.2118 40.4835 28.4961C40.4835 28.7953 40.6002 29.0385 40.8201 29.2135ZM42.082 27.0781C40.7812 27.0781 40.1835 27.7578 40.1835 28.4961C40.1835 29.2695 40.8046 29.8203 41.9179 29.8203C43.4345 29.8203 44.7276 28.7131 44.9366 27.3781C44.952 27.2793 44.9616 27.1791 44.9648 27.0781H42.082ZM50.4539 32.3V19.993H53.8898V20.9125C54.8394 20.0846 56.028 19.7469 57.0468 19.7469C58.6745 19.7469 59.8263 20.4082 60.5613 21.4121C61.2869 22.4032 61.589 23.7024 61.589 24.9688V32.3H58.1648V25.332C58.1648 24.6109 57.9828 24.0218 57.6608 23.6196C57.3456 23.226 56.875 22.9836 56.2265 22.9836C55.4758 22.9836 54.9058 23.1856 54.5212 23.5812C54.1354 23.9781 53.8898 24.6176 53.8898 25.5899V32.3H50.4539ZM53.8898 21.322C53.7857 21.4251 53.6855 21.5351 53.5898 21.6524V20.293H50.7539V32H53.5898V25.5899C53.5898 23.5508 54.621 22.6836 56.2265 22.6836C57.6914 22.6836 58.4648 23.7969 58.4648 25.332V32H61.289V24.9688C61.289 22.5195 60.1171 20.0469 57.0468 20.0469C56.0156 20.0469 54.8049 20.4154 53.8898 21.322ZM71.4656 15.1414H74.9718V32.3H71.7397L71.6512 31.3987C70.7858 32.2073 69.6246 32.5344 68.4843 32.5344C66.7416 32.5344 65.3863 31.7826 64.4745 30.5964C63.5688 29.4182 63.1101 27.826 63.1101 26.1406C63.1101 24.4723 63.569 22.881 64.4677 21.6993C65.3722 20.5099 66.7153 19.7469 68.4375 19.7469C69.4796 19.7469 70.6061 20.0329 71.4656 20.7379V15.1414ZM71.7656 21.4649C71.6719 21.3481 71.5716 21.2393 71.4656 21.1383C70.6566 20.3675 69.515 20.0469 68.4375 20.0469C65.1914 20.0469 63.4101 22.9063 63.4101 26.1406C63.4101 29.4102 65.1914 32.2344 68.4843 32.2344C69.6488 32.2344 70.8038 31.8775 71.6132 31.0125C71.708 30.9112 71.798 30.803 71.8828 30.6875L72.0117 32H74.6718V15.4414H71.7656V21.4649ZM67.2484 28.4518C67.6569 29.0006 68.2798 29.3445 69.1757 29.3445C70.073 29.3445 70.6889 29.0055 71.0906 28.4615C71.5021 27.9041 71.7117 27.0993 71.7117 26.1406C71.7117 25.1943 71.5024 24.3889 71.0902 23.8281C70.6877 23.2803 70.0714 22.9367 69.1757 22.9367C68.2814 22.9367 67.6581 23.2853 67.2488 23.8378C66.8306 24.4024 66.6164 25.2082 66.6164 26.1406C66.6164 27.0854 66.8308 27.8906 67.2484 28.4518ZM77.8289 32.3V15.1414H81.2882V24.3799L85.2734 19.993H89.8282L85.1233 24.8614L90.1674 32.3H86.0613L82.7504 27.068L81.2882 28.6821V32.3H77.8289ZM80.9882 28.5664L82.7929 26.5742L86.2265 32H89.6015L84.7382 24.8281L89.121 20.293H85.4062L80.9882 25.1563V15.4414H78.1289V32H80.9882V28.5664ZM90.8367 18.3781V15.1414H94.4132V18.3781H90.8367ZM90.907 32.3V19.993H94.3429V32.3H90.907ZM94.1132 18.0781H91.1367V15.4414H94.1132V18.0781ZM94.0429 32H91.207V20.293H94.0429V32ZM104.011 32.0901L103.817 32.1634C103.349 32.3406 102.446 32.5344 101.602 32.5344C100.39 32.5344 99.3892 32.1831 98.6892 31.5172C97.9875 30.8497 97.6218 29.898 97.6218 28.7656V22.9836H95.7351V19.993H97.6687V17.2344L101.058 14.7567V19.993H104.011V22.9836H101.058V28.2617C101.058 28.7767 101.189 29.0458 101.344 29.1914C101.503 29.3402 101.744 29.4149 102.082 29.4149C102.614 29.4149 103.211 29.2018 103.58 29.023L104.011 28.8141V32.0901ZM100.758 20.293H103.711V22.6836H100.758V28.2617C100.758 29.3867 101.332 29.7149 102.082 29.7149C102.544 29.7149 103.034 29.5749 103.411 29.4248C103.522 29.3806 103.623 29.3356 103.711 29.293V31.8828C103.277 32.0469 102.41 32.2344 101.602 32.2344C99.2929 32.2344 97.9218 30.8984 97.9218 28.7656V22.6836H96.0351V20.293H97.9687V17.3867L100.758 15.3477V20.293ZM106.634 32.3V28.6063H110.105V32.3H106.634ZM109.805 32H106.934V28.9063H109.805V32ZM66.3164 26.1406C66.3164 28.1094 67.207 29.6445 69.1757 29.6445C71.1445 29.6445 72.0117 28.1328 72.0117 26.1406C72.0117 24.1719 71.1445 22.6367 69.1757 22.6367C67.207 22.6367 66.3164 24.1953 66.3164 26.1406Z" fill="#335EEA"/>
<path d="M6.71785 16.4327C5.25745 23.0542 7.87177 29.8894 11.977 32.9847C18.5918 37.9721 27.9972 36.6528 32.9846 30.038C33.7102 29.0757 34.3022 28.0543 34.764 26.996L24.0661 28.4965C23.0406 28.6404 22.0927 27.9257 21.9488 26.9002L20.0074 14.5687L6.71785 16.4327Z" fill="#335EEA"/>
<path d="M6.71785 16.4327L22.0719 14.2791C23.0974 14.1353 24.0453 14.85 24.1892 15.8755L25.402 24.5224L35.8699 23.0542C36.5821 17.8474 34.5323 12.4192 30.0379 9.03049C23.4232 4.0431 14.0178 5.36235 9.03038 11.9771C7.98617 13.3621 7.21842 14.8693 6.71785 16.4327Z" fill="#335EEA"/>
</svg>

<svg fill="none" height="43" width="111" xmlns="http://www.w3.org/2000/svg"><g fill="#335eea"><path d="M41.508 32.234c1.394 0 2.637-.445 3.644-1.91L45.34 32h2.355v-7.102c0-2.859-1.875-4.851-5.062-4.851-2.309 0-3.797 1.031-4.922 2.566l2.191 1.582c.504-.855 1.407-1.652 2.754-1.652 1.512 0 2.309.984 2.309 2.473h-3.047c-2.625 0-4.664.843-4.664 3.386 0 2.45 1.852 3.832 4.254 3.832zm.41-2.414c-1.113 0-1.734-.55-1.734-1.324 0-.738.597-1.418 1.898-1.418h2.883c-.047 1.465-1.418 2.742-3.047 2.742zM50.754 32h2.836v-6.41c0-2.04 1.031-2.906 2.637-2.906 1.464 0 2.238 1.113 2.238 2.648V32h2.824v-7.031c0-2.45-1.172-4.922-4.242-4.922-1.149 0-2.52.457-3.457 1.605v-1.359h-2.836zM71.766 15.441v6.024c-.809-1.008-2.11-1.418-3.328-1.418-3.247 0-5.028 2.86-5.028 6.094 0 3.27 1.781 6.093 5.074 6.093 1.301 0 2.59-.445 3.399-1.547L72.012 32h2.66V15.441zm-2.59 14.203c-1.969 0-2.86-1.535-2.86-3.503 0-1.946.891-3.504 2.86-3.504 1.969 0 2.836 1.535 2.836 3.504 0 1.992-.867 3.504-2.836 3.504zM78.129 32h2.86v-3.434l1.804-1.992L86.227 32h3.375l-4.864-7.172 4.383-4.535h-3.715l-4.418 4.863v-9.715h-2.86zM91.137 18.078h2.976v-2.637h-2.976zM91.207 32h2.836V20.293h-2.836zM101.602 32.234c.808 0 1.675-.187 2.109-.351v-2.59c-.387.188-1.031.422-1.629.422-.75 0-1.324-.328-1.324-1.453v-5.578h2.953v-2.391h-2.953v-4.945l-2.79 2.039v2.906h-1.933v2.39h1.887v6.083c0 2.132 1.371 3.468 3.68 3.468zM106.934 32h2.871v-3.094h-2.871z"/><path clip-rule="evenodd" d="M45.34 32l-.188-1.676a5.65 5.65 0 01-.262.352c-.958 1.186-2.106 1.558-3.382 1.558-2.403 0-4.254-1.382-4.254-3.832 0-2.543 2.039-3.386 4.664-3.386h3.047c0-.103-.004-.203-.012-.3-.101-1.32-.89-2.173-2.297-2.173-1.213 0-2.066.646-2.591 1.4a3.879 3.879 0 00-.163.252l-2.191-1.582.181-.239c1.103-1.402 2.554-2.327 4.74-2.327 3.188 0 5.063 1.992 5.063 4.851V32zm-.687-7.284h-2.735c-1.335 0-2.568.213-3.477.786-.93.587-1.487 1.533-1.487 2.9 0 1.307.497 2.35 1.331 3.063.829.708 1.966 1.07 3.223 1.07.729 0 1.435-.117 2.097-.436.477-.23.922-.56 1.33-1.014l.137 1.215h2.923v-7.402c0-1.496-.492-2.79-1.425-3.711-.933-.92-2.28-1.44-3.937-1.44-2.423 0-3.994 1.093-5.164 2.689l-.179.244 2.704 1.951.167-.283c.467-.794 1.284-1.505 2.495-1.505.688 0 1.177.222 1.498.579.277.308.452.744.499 1.294zm-3.833 4.498c.227.18.587.306 1.098.306 1.364 0 2.506-.984 2.714-2.142h-2.55c-.6 0-1 .157-1.244.362a.965.965 0 00-.354.756c0 .3.116.543.336.718zm1.262-2.136c-1.3 0-1.899.68-1.899 1.418 0 .774.622 1.324 1.735 1.324 1.516 0 2.81-1.107 3.019-2.442.015-.099.025-.199.028-.3zm8.372 5.222V19.993h3.436v.92c.95-.828 2.138-1.166 3.157-1.166 1.627 0 2.78.661 3.514 1.665.726.991 1.028 2.29 1.028 3.557V32.3h-3.424v-6.968c0-.721-.182-1.31-.504-1.712-.315-.394-.786-.636-1.435-.636-.75 0-1.32.202-1.705.597-.386.397-.631 1.037-.631 2.009v6.71zm3.436-10.978a4.214 4.214 0 00-.3.33v-1.359h-2.836V32h2.836v-6.41c0-2.04 1.031-2.906 2.636-2.906 1.465 0 2.239 1.113 2.239 2.648V32h2.824v-7.031c0-2.45-1.172-4.922-4.242-4.922-1.031 0-2.242.368-3.157 1.275zm17.576-6.18h3.506V32.3H71.74l-.089-.901c-.865.808-2.026 1.135-3.167 1.135-1.742 0-3.098-.751-4.01-1.938-.905-1.178-1.364-2.77-1.364-4.455 0-1.669.459-3.26 1.358-4.442.904-1.19 2.247-1.952 3.97-1.952 1.042 0 2.168.286 3.028.99zm.3 6.323a3.323 3.323 0 00-.3-.327c-.81-.77-1.951-1.091-3.028-1.091-3.247 0-5.028 2.86-5.028 6.094 0 3.27 1.781 6.093 5.074 6.093 1.165 0 2.32-.356 3.13-1.221.094-.102.184-.21.269-.325L72.012 32h2.66V15.441h-2.906zm-4.518 6.987c.409.549 1.032.893 1.928.893.897 0 1.513-.34 1.915-.883.411-.558.62-1.363.62-2.321 0-.947-.209-1.752-.62-2.313-.403-.548-1.02-.891-1.915-.891s-1.518.348-1.927.9c-.418.565-.633 1.371-.633 2.304 0 .944.215 1.75.632 2.31zm10.58 3.848V15.141h3.46v9.239l3.985-4.387h4.555l-4.705 4.868 5.044 7.439h-4.106l-3.31-5.232-1.463 1.614V32.3zm3.16-3.734l1.805-1.992L86.226 32h3.375l-4.863-7.172 4.383-4.535h-3.715l-4.418 4.863v-9.715h-2.86V32h2.86zm9.849-10.188v-3.237h3.576v3.237zm.07 13.922V19.993h3.436V32.3zm3.206-14.222h-2.976v-2.637h2.976zM94.043 32h-2.836V20.293h2.836zm9.968.09l-.194.073c-.468.178-1.371.371-2.215.371-1.212 0-2.213-.35-2.913-1.017-.702-.667-1.067-1.619-1.067-2.751v-5.782h-1.887v-2.991h1.934v-2.759l3.389-2.477v5.236h2.953v2.99h-2.953v5.279c0 .515.131.784.286.93.159.148.4.223.738.223.532 0 1.129-.213 1.498-.392l.431-.209zm-3.253-11.797h2.953v2.39h-2.953v5.579c0 1.125.574 1.453 1.324 1.453.462 0 .952-.14 1.329-.29.111-.044.212-.09.3-.132v2.59c-.434.164-1.301.351-2.109.351-2.31 0-3.68-1.336-3.68-3.468v-6.082h-1.887v-2.391h1.934v-2.906l2.789-2.04zm5.876 12.007v-3.694h3.471V32.3zm3.171-.3h-2.871v-3.094h2.871zm-43.489-5.86c0 1.97.891 3.505 2.86 3.505 1.969 0 2.836-1.512 2.836-3.504 0-1.97-.867-3.504-2.836-3.504-1.969 0-2.86 1.558-2.86 3.504z" fill-rule="evenodd"/><path d="M6.718 16.433c-1.46 6.621 1.154 13.456 5.259 16.552 6.615 4.987 16.02 3.668 21.008-2.947a15.04 15.04 0 001.779-3.042l-10.698 1.5A1.875 1.875 0 0121.95 26.9L20.007 14.57z"/><path d="M6.718 16.433l15.354-2.154a1.875 1.875 0 012.117 1.596l1.213 8.647 10.468-1.468c.712-5.207-1.338-10.635-5.832-14.024-6.615-4.987-16.02-3.668-21.008 2.947a14.978 14.978 0 00-2.312 4.456z"/></g></svg>
